Flat-Remix-Blue-Dark/status/scalable/16/package-purge.svg

<svg xmlns="http://www.w3.org/2000/svg" width="36pt" height="36pt" version="1.1" viewBox="0 0 36 36"> <g> <path style="fill:rgb(99.215%,28.627%,28.627%)" d="M 36 34.195312 L 36 1.796875 C 36 0.800781 35.195312 -0.00390625 34.199219 -0.00390625 L 1.800781 -0.00390625 C 0.804688 -0.00390625 0 0.800781 0 1.796875 L 0 34.195312 C 0 35.1875 0.804688 35.996094 1.800781 35.996094 L 34.199219 35.996094 C 35.195312 35.996094 36 35.1875 36 34.195312 Z M 36 34.195312"/> <path style="fill:rgb(100.000%,100.000%,100.000%)" d="M 6.863281 10.042969 L 14.816406 18 L 6.863281 25.957031 L 10.046875 29.136719 L 18 21.183594 L 25.953125 29.136719 L 29.136719 25.957031 L 21.183594 18 L 29.136719 10.042969 L 25.953125 6.863281 L 18 14.816406 L 10.046875 6.863281 Z M 6.863281 10.042969"/> </g> </svg>

<svg width="16" height="16" version="1.1" viewBox="0 0 12 12" xmlns="http://www.w3.org/2000/svg"><g transform="matrix(.33333 0 0 .33333 6e-8 .0013021)"><path d="m36 34.195v-32.398c0-0.99609-0.80469-1.8008-1.8008-1.8008h-32.398c-0.99609 0-1.8008 0.80469-1.8008 1.8008v32.398c0 0.99219 0.80469 1.8008 1.8008 1.8008h32.398c0.99609 0 1.8008-0.80859 1.8008-1.8008z" fill="#fd4747"/><path d="m6.8633 10.043 7.9531 7.957-7.9531 7.957 3.1836 3.1797 7.9531-7.9531 7.9531 7.9531 3.1836-3.1797-7.9531-7.957 7.9531-7.957-3.1836-3.1797-7.9531 7.9531-7.9531-7.9531z" fill="#fff"/></g></svg>
